static/icons/globe.svg

<svg width="20" height="20" viewBox="0 0 20 20" fill="none" xmlns="http://www.w3.org/2000/svg">
<path d="M20 10C20 8.68678 19.7413 7.38642 19.2388 6.17317C18.7362 4.95991 17.9997 3.85752 17.0711 2.92893C16.1425 2.00035 15.0401 1.26375 13.8268 0.761205C12.6136 0.258658 11.3132 0 10 0C7.34784 0 4.8043 1.05357 2.92893 2.92893C1.05357 4.8043 0 7.34784 0 10C0 12.6522 1.05357 15.1957 2.92893 17.0711C4.8043 18.9464 7.34784 20 10 20C12.6522 20 15.1957 18.9464 17.0711 17.0711C18.9464 15.1957 20 12.6522 20 10ZM17.93 9H15C14.8351 6.64814 14.0293 4.38635 12.67 2.46C14.0665 2.95597 15.2977 3.83007 16.2265 4.98484C17.1553 6.13962 17.745 7.52967 17.93 9ZM7.08 11H13C12.7441 13.4706 11.6911 15.7908 10 17.61C8.31007 15.7984 7.28119 13.4693 7.08 11ZM7.08 9C7.31289 6.54183 8.33759 4.22572 10 2.4C11.7047 4.20612 12.7601 6.52804 13 9H7.08ZM7.44 2.43C6.07355 4.36702 5.2548 6.63672 5.07 9H2.07C2.2589 7.5115 2.86261 6.10612 3.81217 4.94437C4.76172 3.78262 6.01886 2.91133 7.44 2.43ZM2.07 11H5.07C5.23469 13.3613 6.04788 15.6313 7.42 17.56C6.00397 17.0763 4.75199 16.2052 3.80627 15.0456C2.86055 13.886 2.25902 12.4844 2.07 11ZM12.62 17.55C13.9884 15.6207 14.8107 13.3577 15 11H17.95C17.7609 12.4802 17.1615 13.8781 16.2196 15.0356C15.2778 16.193 14.0309 17.064 12.62 17.55Z" fill="black"/>
</svg>

<svg xmlns="http://www.w3.org/2000/svg" width="20" height="20" fill="none"><path fill="#000" d="M20 10A10 10 0 1 0-.002 10 10 10 0 0 0 20 10Zm-2.07-1H15a12.91 12.91 0 0 0-2.33-6.54A8 8 0 0 1 17.93 9ZM7.08 11H13a11.44 11.44 0 0 1-3 6.61A11 11 0 0 1 7.08 11Zm0-2A11.4 11.4 0 0 1 10 2.4 11.19 11.19 0 0 1 13 9H7.08Zm.36-6.57A13.18 13.18 0 0 0 5.07 9h-3a8 8 0 0 1 5.37-6.57ZM2.07 11h3a12.86 12.86 0 0 0 2.35 6.56A8 8 0 0 1 2.07 11Zm10.55 6.55A13.14 13.14 0 0 0 15 11h2.95a8 8 0 0 1-5.33 6.55Z"/></svg>
